X:1
T:Si lestincelelle
T:Maille
T:Source : Livre X de 28 chansons nouvelles à 4 parties---Paris---P.Attaingnant---1541. Editor : André Vierendeels (22/05/18) Notes : Original clefs : C1, C3, C4, F4 Original note values have been halved Editorial accidentals above the staff Square brackets indicate ligatures 
T:-natural
T:Si lestincelelle
T:b
T:©
T:©
T:©
T:©
C:Maille
Z:©
%%score [ 1 2 3 4 ]
L:1/8
Q:1/4=120
M:2/2
K:C
V:1 treble nm="Soprano" snm="S"
V:2 treble nm="Alto" snm="A"
V:3 treble-8 nm="Tenor" snm="T"
V:4 bass nm="Bass" snm="B"
V:1
 G4 B2 B2 | AGAB c2 c2 | c2 B4 A2- | A2 G2 A4 | A4 B2 B2 | B2 G4 c2- | cB A4 G2- |"^#" G2 F2 G4 :| %8
w: Si les- tin-|cel- * * * * l'en|ung pe- tit|_ mo- mant,|em- bra- se'ung|feu de trop|_ grand im- por-|* tan- ce,|
w: Mer- veil- le|nest _ _ _ _ si|nous voy- ons|_ sou- vant|en peu de|temps pour peu|_ de sou- ve-|* nan- ce,|
 z4 A4 | G2 G2 FEFG | A2 A2 A2 B2 | c2 B2 A2 B2- | BA A4 G2 | A4 A4- | A4 A2 A2 | B2 B2 c3 d | %16
w: re-|vi- vr'et crois- * * *|tre'u- ne'an- cien- ne'ac-|coin- tan- * *||ce, las,|_ qui fust|vray que vis- *|
w: ||||||||
 e2 e2 d2 c2- | c2 B2 c4 | z2 c2 B2 A2 | G2 G2 B2 B2 | A3 B c2 dc | BA A4 G2 | A2 A2 G4 | G4 A4 | %24
w: * s'e- ga- le-|* * ment,|nos cueurs u-|nis de pa- reil-|le'as- seu- ran- * *||ce, com- me'ilz|sou- loient|
w: ||||||||
 A2 d3 cBA | B2 A4 G2- | G2 F2 G4 | z2 A2 G4 | G4 A4 | A2 d3 cBA | B2 A4 G2- |"^#" G2 F2 G4- | %32
w: et de _ _ _|_ con- ten|_ te- ment,|com- me'ilz|sou- loient|et de _ _ _|_ con- ten-|* te- ment.|
w: ||||||||
 G8 :| %33
w: _|
w: |
V:2
 D4 G2 G2 | E4 C4 | z2 F2 F2 D2 | E2 E2 C4 | F4 G2 G2 | G2 D2 E4- | E2 E2 E2 C2 | D4 D4 :| z4 F4 | %9
w: Si les- tin-|cel- le|en ung pe-|tit mo- mant,|em- bra- se'ung|feu de trop|_ grand im- por-|tan- ce,|re-|
w: Mer- veil- le|nest _|si nous voy-|ons sou- vant|en peu de|temps pour peu|_ de sou- ve-|nan- ce,||
 E2 E2 D4 | E4 F4 | G2 F2 E2 G2 | F2 D2 E4 | C4 E4- | E4 F2 F2 | G6 G2 | G2 G2 A2 F2 | G4 z2 G2 | %18
w: vi- vr'et crois-|tre'u- ne'an-|cien- ne'ac- coin- tan-||ce, las,|_ qui fust|vray que|vis- s'e- ga- le-|ment, nos|
w: |||||||||
 G6 E2 | E4 G4 | F2 F2 G4- | G2 D2 E4 | C2 C2 E4 | D3 E F4- | F4 F4 | G2 F4 E2 | D4 D4 | z2 C2 E4 | %28
w: cueurrs u-|nis de|pa- eil- le'as-|* seu- ran-|ce, com- me'ilz|sou- * loient|_ et|de con- ten|te- ment,|com- me'ilz|
w: ||||||||||
 D3 E F4- | F4 F4 | G2 F4 E2 | D4 D4- | D8 :| %33
w: sou- * loient|_ et|de con- ten-|te- ment.|_|
w: |||||
V:3
 B4 d2 d2 | cBcd e4- | e2 d2 c2 A2 | B2 B2 A4 | d4 d2 d2 | dcBA G2 G2 | c2 c2 B2 G2 | A4 G4 :| %8
w: Si les- tin-|cel- * * * *|* l'en ung pe-|tit mo- mant,|em- bra- se'ung|feu _ _ _ _ de|trop grand im- por-|tan- ce,|
w: Mer- veil- le|nest _ _ _ _|_ si nous voy-|ons sou- vant|en peu de|temps _ _ _ _ pour|peu de sou- ve-|nan- ce,|
 z4 d4 | B2 c2 A3 B | c2 c2 d2 d2 | e2 d2 c2 d2- | dcBA B4 | A4 c4- | c4 d2 c2 | e6 e2 | %16
w: re-|vi- vr'et crois- *|* stre'u- ne'an- cien-|ne'ac- coin- tan- *||ce, las,|_ qui fust|vray que|
w: ||||||||
 e2 e2 fedc | d2 d2 c4 | e4 d2 c2 | B4 z2 G2 | c2 d2 e2 d2- | dcBA B4 | A2 A2 B2 c2- | c2 B2 c4 | %24
w: vis- s'e- ga- * * *|* le- ment,|nos cueurs u-|nis de|pa- reil- le'as- seu-|* * * * ran-|ce, com- me'ilz sou-|* * loient|
w: ||||||||
 z2 A2 d4- | d2 d2 cBAG | A4 G4 | z2 A2 B2 c2- | c2 B2 c4 | z2 A2 d4- | d2 d2 cBAG | A4 G4- | G8 :| %33
w: et de|_ con- ten- * * *|te- ment,|com- me'ilz sou-|* * loient|et de|_ con- ten- * * *|te- ment.|_|
w: |||||||||
V:4
 G,4 G,2 G,2 | A,4 A,4 | z2 D,2 F,2 F,2 | E,4 F,4 | D,4 G,4 | G,2 G,2 E,2 C,2 | C,2 C,2 E,2 E,2 | %7
w: Si les- tin-|cel- le|en ung pe-|tit mo-|mant, em-|bra- se'ung feu de|trop grand im- por-|
w: Mer- veil- le|_ nest|si nous voy-|ons sou-|vant en|peu de temps pour|peu de sou- ve-|
 D,4 G,,4 :| z4 D,4 | E,2 C,2 D,4 | A,,4 z2 D,2 | C,2 D,2 A,2 G,2 | D,2 F,2 E,4 | A,,4 A,4- | %14
w: tan- ce,|re-|vi- vr'et crois-|tre u-|ne'an- cien- ne'ac- coin-|tan- * *|ce, las,|
w: nan- ce,|||||||
 A,4 D,2 F,2 | E,4 z2 C,2 | C,2 C,2 F,2 A,2 |"^#" G,4 z2 C,2 | C,D,E,F, G,2 A,2 | E,6 E,2 | %20
w: _ qui fust|vray que|vis- s'e- ga- le-|ment, nos|cueurs _ _ _ _ u-|nis de|
w: ||||||
 F,2 D,2 C,2 G,2- | G,2 F,2 E,4 | A,,2 F,2 E,2 D,C, | G,2 G,2 F,4 | D,4 z2 D,2 | G,2 D,2 F,2 G,2 | %26
w: pa- reil- le'as- seu-|* ran- *|ce, com- me'ilz _ _|_ sou- loient|_ et|de con- ten- *|
w: ||||||
 D,4 G,,4 | z2 F,2 E,2 D,C, | G,2 G,2 F,4 | D,4 z2 D,2 | G,2 D,2 F,2 G,2 | D,4 G,,4- | G,,8 :| %33
w: te- ment,|com- me'ilz _ _|_ sou- loient|_ et|de con- ten- *|te- ment.|_|
w: |||||||

